assets/features/home/subscription/mastercard.svg

<svg width="60" height="40" viewBox="0 0 60 40" fill="none" xmlns="http://www.w3.org/2000/svg">
<rect width="60" height="40" rx="8" fill="black"/>
<path d="M24.2978 29.4737C29.5984 29.4737 33.8955 25.1649 33.8955 19.8496C33.8955 14.5344 29.5984 10.2256 24.2978 10.2256C18.9971 10.2256 14.7 14.5344 14.7 19.8496C14.7 25.1649 18.9971 29.4737 24.2978 29.4737Z" fill="#EB001B"/>
<path d="M35.8906 29.4737C41.1913 29.4737 45.4883 25.1649 45.4883 19.8496C45.4883 14.5344 41.1913 10.2256 35.8906 10.2256C30.5899 10.2256 26.2928 14.5344 26.2928 19.8496C26.2928 25.1649 30.5899 29.4737 35.8906 29.4737Z" fill="#F79E1B"/>
<path d="M30.0918 12.1641C32.4027 13.92 33.8907 16.7026 33.8907 19.8307C33.8907 22.9587 32.4027 25.7462 30.0918 27.5021C27.7808 25.7462 26.2928 22.9635 26.2928 19.8307C26.2928 16.6978 27.7856 13.92 30.0918 12.1641Z" fill="#FF5F00"/>
</svg>

<svg xmlns="http://www.w3.org/2000/svg" width="60" height="40" fill="none" viewBox="0 0 60 40"><rect width="60" height="40" fill="#000" rx="8"/><path fill="#eb001b" d="M24.298 29.474c5.3 0 9.598-4.31 9.598-9.624 0-5.316-4.298-9.624-9.598-9.624S14.7 14.534 14.7 19.85c0 5.315 4.297 9.624 9.598 9.624"/><path fill="#f79e1b" d="M35.89 29.474c5.301 0 9.598-4.31 9.598-9.624 0-5.316-4.297-9.624-9.597-9.624-5.301 0-9.598 4.308-9.598 9.624 0 5.315 4.297 9.624 9.598 9.624"/><path fill="#ff5f00" d="M30.092 12.164a9.6 9.6 0 0 1 3.799 7.667 9.62 9.62 0 0 1-3.8 7.671 9.6 9.6 0 0 1-3.798-7.671 9.61 9.61 0 0 1 3.799-7.667"/></svg>
